Numix-GalliumOS/22/devices/gnome-dev-network.svg

<?xml version="1.0" encoding="UTF-8" standalone="no"?>
<svg
   xmlns:dc="http://purl.org/dc/elements/1.1/"
   xmlns:cc="http://creativecommons.org/ns#"
   xmlns:rdf="http://www.w3.org/1999/02/22-rdf-syntax-ns#"
   xmlns:svg="http://www.w3.org/2000/svg"
   xmlns="http://www.w3.org/2000/svg"
   xmlns:sodipodi="http://sodipodi.sourceforge.net/DTD/sodipodi-0.dtd"
   xmlns:inkscape="http://www.inkscape.org/namespaces/inkscape"
   width="22"
   height="22"
   viewBox="0 0 22 22"
   id="svg1577"
   version="1.1"
   inkscape:version="0.91 r"
   sodipodi:docname="gnome-dev-network.svg">
  <metadata
     id="metadata1589">
    <rdf:RDF>
      <cc:Work
         rdf:about="">
        <dc:format>image/svg+xml</dc:format>
        <dc:type
           rdf:resource="http://purl.org/dc/dcmitype/StillImage" />
      </cc:Work>
    </rdf:RDF>
  </metadata>
  <defs
     id="defs1587" />
  <sodipodi:namedview
     pagecolor="#ffffff"
     bordercolor="#666666"
     borderopacity="1"
     objecttolerance="10"
     gridtolerance="10"
     guidetolerance="10"
     inkscape:pageopacity="0"
     inkscape:pageshadow="2"
     inkscape:window-width="640"
     inkscape:window-height="480"
     id="namedview1585" />
  <g
     style="fill-opacity:.8"
     id="g1579">
    <path
       style="fill:#ededec"
       d="M 2.398438 3.691406 C 2.089844 3.757812 1.847656 4.058594 1.855469 4.375 L 1.855469 17.164062 C 1.855469 17.523438 2.183594 17.851562 2.542969 17.851562 L 19.457031 17.851562 C 19.816406 17.851562 20.144531 17.523438 20.144531 17.164062 L 20.144531 5.761719 C 20.144531 5.402344 19.816406 5.074219 19.457031 5.074219 L 12.828125 5.074219 L 12.828125 4.375 C 12.828125 4.015625 12.503906 3.691406 12.144531 3.691406 L 2.542969 3.691406 C 2.496094 3.6875 2.445312 3.6875 2.398438 3.691406 Z "
       id="path1581" />
    <path
       style="fill:#000"
       d="M 2.378906 3.667969 C 2.066406 3.734375 1.828125 4.039062 1.832031 4.355469 L 1.832031 17.1875 C 1.832031 17.546875 2.160156 17.875 2.519531 17.875 L 19.480469 17.875 C 19.839844 17.875 20.167969 17.546875 20.167969 17.1875 L 20.167969 5.742188 C 20.167969 5.382812 19.839844 5.054688 19.480469 5.054688 L 12.832031 5.054688 L 12.832031 4.355469 C 12.832031 3.996094 12.503906 3.667969 12.144531 3.667969 L 2.519531 3.667969 C 2.472656 3.660156 2.425781 3.660156 2.378906 3.667969 Z M 10.542969 7.332031 L 11 7.332031 C 13.023438 7.332031 14.667969 8.976562 14.667969 11 C 14.667969 13.023438 13.480469 14.667969 11 14.667969 C 8.707031 14.667969 7.332031 13.023438 7.332031 11 C 7.332031 8.976562 8.976562 7.332031 10.542969 7.332031 Z M 11.300781 7.847656 C 11.296875 7.863281 11.300781 7.859375 11.300781 7.878906 C 11.269531 8.1875 11.09375 7.988281 11.027344 8.019531 C 10.964844 8.054688 10.527344 8.660156 10.527344 8.59375 C 10.527344 8.527344 10.613281 8.4375 10.613281 8.4375 C 10.613281 8.4375 10.636719 8.160156 10.585938 7.863281 C 10.441406 7.882812 10.304688 7.898438 10.167969 7.933594 L 9.738281 8.636719 C 9.777344 8.640625 9.820312 8.652344 9.867188 8.679688 C 10.097656 8.8125 10.191406 8.9375 10.253906 8.953125 C 10.320312 8.96875 10.609375 8.554688 10.398438 8.996094 C 10.1875 9.4375 10.085938 9.585938 9.839844 9.683594 C 9.824219 9.6875 9.8125 9.6875 9.796875 9.695312 C 9.734375 9.773438 9.644531 9.84375 9.539062 9.941406 C 9.308594 10.144531 9.195312 10.179688 9.195312 10.382812 C 9.195312 10.589844 9.199219 10.753906 9.039062 11.027344 C 8.875 11.304688 8.769531 11.296875 8.835938 11.5 C 8.90625 11.707031 8.953125 12.078125 8.835938 11.917969 C 8.722656 11.757812 8.773438 11.433594 8.679688 11.617188 C 8.597656 11.777344 8.40625 11.835938 8.394531 12.003906 C 8.390625 12.023438 8.386719 12.046875 8.394531 12.074219 C 8.394531 12.078125 8.390625 12.082031 8.394531 12.089844 C 8.453125 12.285156 8.792969 12.019531 8.792969 12.175781 C 8.792969 12.335938 8.496094 12.324219 8.566406 12.460938 C 8.632812 12.597656 8.90625 12.191406 9.136719 12.261719 C 9.371094 12.328125 9.214844 12.371094 9.425781 12.460938 C 9.632812 12.550781 9.753906 12.652344 9.753906 12.789062 C 9.753906 12.929688 10.410156 12.863281 10.339844 13.089844 C 10.273438 13.320312 10.207031 13.269531 9.996094 13.519531 C 9.882812 13.660156 9.777344 13.742188 9.710938 13.808594 C 9.804688 13.875 9.828125 13.914062 9.941406 13.878906 C 10.085938 13.828125 9.898438 13.757812 10.011719 13.691406 C 10.039062 13.675781 10.050781 13.664062 10.070312 13.648438 C 10.085938 13.636719 10.105469 13.617188 10.140625 13.605469 C 10.210938 13.585938 10.351562 13.578125 10.671875 13.578125 C 11.308594 13.578125 11.617188 13.605469 11.617188 13.605469 C 11.617188 13.605469 11.828125 13.605469 11.628906 13.722656 C 11.488281 13.804688 11.195312 13.953125 11.15625 13.992188 C 11.171875 13.992188 11.207031 13.988281 11.242188 13.980469 C 11.539062 13.898438 11.945312 13.824219 12.058594 13.792969 C 12.109375 13.777344 12.367188 13.644531 12.574219 13.550781 C 12.585938 13.53125 12.582031 13.511719 12.589844 13.492188 L 12.574219 13.492188 C 12.414062 13.421875 12.285156 13.113281 12.332031 13.019531 C 12.378906 12.925781 12.488281 12.851562 12.605469 12.617188 C 12.71875 12.386719 12.699219 12.546875 12.375 12.132812 C 12.050781 11.714844 11.878906 12.15625 11.714844 12.015625 C 11.554688 11.878906 11.226562 11.757812 11.085938 11.5 C 10.945312 11.246094 11.015625 11.433594 11.015625 11.15625 C 11.015625 10.878906 10.988281 11.089844 11.058594 10.855469 C 11.125 10.625 11.3125 10.601562 11.542969 10.441406 C 11.574219 10.417969 11.613281 10.414062 11.644531 10.398438 C 11.59375 10.347656 11.515625 10.242188 11.371094 10.097656 C 11.371094 10.097656 11.515625 9.800781 11.628906 9.753906 C 11.742188 9.710938 11.808594 9.726562 11.960938 9.769531 C 11.964844 9.742188 11.96875 9.738281 11.972656 9.683594 C 11.996094 9.496094 11.902344 9.597656 11.902344 9.480469 C 11.902344 9.367188 11.957031 9.484375 12.117188 9.4375 C 12.277344 9.390625 12.285156 9.078125 12.445312 9.125 C 12.609375 9.171875 12.609375 9.058594 12.746094 8.851562 C 12.886719 8.644531 12.746094 8.757812 12.5625 8.664062 C 12.375 8.574219 12.535156 8.804688 12.488281 8.964844 C 12.441406 9.128906 12.308594 9.027344 12.144531 8.679688 C 11.984375 8.332031 12.125 8.46875 12.21875 8.191406 C 12.234375 8.144531 12.25 8.121094 12.273438 8.09375 C 11.972656 7.960938 11.640625 7.878906 11.300781 7.847656 Z M 11.917969 9.082031 C 11.988281 9.089844 12.039062 9.167969 12.074219 9.238281 C 12.09375 9.277344 12.082031 9.285156 12.058594 9.296875 C 12.058594 9.296875 12.089844 9.371094 12.089844 9.394531 C 12.089844 9.417969 12.039062 9.410156 11.929688 9.382812 C 11.847656 9.359375 11.902344 9.351562 11.960938 9.308594 L 11.859375 9.308594 C 11.820312 9.308594 11.796875 9.304688 11.789062 9.296875 C 11.792969 9.300781 11.792969 9.296875 11.800781 9.308594 C 11.816406 9.324219 11.816406 9.332031 11.816406 9.339844 C 11.800781 9.335938 11.753906 9.328125 11.714844 9.339844 C 11.640625 9.355469 11.722656 9.300781 11.757812 9.238281 C 11.757812 9.238281 11.777344 9.253906 11.789062 9.265625 C 11.800781 9.234375 11.832031 9.175781 11.832031 9.09375 C 11.859375 9.082031 11.894531 9.074219 11.917969 9.082031 Z M 13.664062 9.28125 C 13.546875 9.367188 13.398438 9.558594 13.277344 9.683594 C 13.070312 9.890625 13.390625 9.917969 13.507812 9.941406 C 13.621094 9.964844 13.734375 9.882812 13.964844 9.882812 C 13.960938 9.871094 13.953125 9.863281 13.949219 9.855469 C 13.917969 9.859375 13.886719 9.867188 13.851562 9.867188 C 13.714844 9.867188 13.804688 9.738281 13.835938 9.554688 C 13.789062 9.457031 13.722656 9.371094 13.664062 9.28125 Z M 12.230469 9.710938 C 12.183594 9.695312 12.105469 9.746094 12.015625 9.796875 C 12.078125 9.886719 11.890625 10.144531 11.789062 10.328125 C 11.785156 10.332031 11.777344 10.332031 11.773438 10.339844 C 11.972656 10.308594 12.285156 10.355469 12.976562 10.527344 C 12.976562 10.527344 13.230469 10.464844 13.277344 10.554688 C 13.292969 10.589844 13.386719 10.605469 13.492188 10.613281 C 13.773438 10.503906 13.621094 10.40625 13.621094 10.183594 C 13.621094 9.953125 13.273438 10.214844 13.320312 10.097656 C 13.367188 9.980469 13.265625 9.988281 13.105469 9.824219 C 12.945312 9.664062 12.976562 10.226562 12.863281 10.113281 C 12.746094 9.996094 12.738281 10.089844 12.691406 9.996094 C 12.644531 9.90625 12.488281 9.753906 12.488281 9.753906 C 12.488281 9.753906 12.597656 9.878906 12.574219 10.113281 C 12.550781 10.34375 12.230469 10.140625 12.230469 10.140625 C 12.230469 10.140625 12.28125 10.121094 12.375 10.097656 C 12.46875 10.074219 12.359375 9.929688 12.289062 9.769531 C 12.273438 9.730469 12.253906 9.71875 12.230469 9.710938 Z M 14.179688 10.855469 C 14.152344 10.875 14.109375 10.902344 14.078125 10.914062 C 13.824219 11.007812 13.648438 11.199219 13.648438 11.199219 C 13.648438 11.199219 13.941406 11.203125 14.152344 11.386719 C 14.167969 11.261719 14.179688 11.128906 14.179688 11 C 14.179688 10.953125 14.183594 10.902344 14.179688 10.855469 Z "
       id="path1583" />
  </g>
</svg>

<svg xmlns="http://www.w3.org/2000/svg" viewBox="0 0 22 22">
 <g style="fill-opacity:0.8">
  <path d="m 2.398 3.691 c -0.309 0.066 -0.551 0.367 -0.543 0.684 l 0 12.789 c 0 0.359 0.328 0.688 0.687 0.688 l 16.914 0 c 0.359 0 0.688 -0.328 0.688 -0.688 l 0 -11.402 c 0 -0.359 -0.328 -0.688 -0.688 -0.688 l -6.629 0 l 0 -0.699 c 0 -0.359 -0.324 -0.684 -0.684 -0.684 l -9.602 0 c -0.047 -0.004 -0.098 -0.004 -0.145 0 Z" style="fill:#ededec"/>
  <path d="m 2.379 3.668 c -0.313 0.066 -0.551 0.371 -0.547 0.688 l 0 12.832 c 0 0.359 0.328 0.688 0.688 0.688 l 16.961 0 c 0.359 0 0.688 -0.328 0.688 -0.688 l 0 -11.445 c 0 -0.359 -0.328 -0.688 -0.688 -0.688 l -6.648 0 l 0 -0.699 c 0 -0.359 -0.328 -0.688 -0.688 -0.688 l -9.625 0 c -0.047 -0.008 -0.094 -0.008 -0.141 0 m 8.164 3.664 l 0.457 0 c 2.023 0 3.668 1.645 3.668 3.668 c 0 2.023 -1.188 3.668 -3.668 3.668 c -2.293 0 -3.668 -1.645 -3.668 -3.668 c 0 -2.023 1.645 -3.668 3.211 -3.668 m 0.758 0.516 c -0.004 0.016 0 0.012 0 0.031 c -0.031 0.309 -0.207 0.109 -0.273 0.141 c -0.063 0.035 -0.5 0.641 -0.5 0.574 c 0 -0.066 0.086 -0.156 0.086 -0.156 c 0 0 0.023 -0.277 -0.027 -0.574 c -0.145 0.02 -0.281 0.035 -0.418 0.07 l -0.43 0.703 c 0.039 0.004 0.082 0.016 0.129 0.043 c 0.23 0.133 0.324 0.258 0.387 0.273 c 0.066 0.016 0.355 -0.398 0.145 0.043 c -0.211 0.441 -0.313 0.59 -0.559 0.688 c -0.016 0.004 -0.027 0.004 -0.043 0.012 c -0.063 0.078 -0.152 0.148 -0.258 0.246 c -0.23 0.203 -0.344 0.238 -0.344 0.441 c 0 0.207 0.004 0.371 -0.156 0.645 c -0.164 0.277 -0.27 0.27 -0.203 0.473 c 0.07 0.207 0.117 0.578 0 0.418 c -0.113 -0.16 -0.063 -0.484 -0.156 -0.301 c -0.082 0.16 -0.273 0.219 -0.285 0.387 c -0.004 0.02 -0.008 0.043 0 0.07 c 0 0.004 -0.004 0.008 0 0.016 c 0.059 0.195 0.398 -0.07 0.398 0.086 c 0 0.16 -0.297 0.148 -0.227 0.285 c 0.066 0.137 0.34 -0.27 0.57 -0.199 c 0.234 0.066 0.078 0.109 0.289 0.199 c 0.207 0.09 0.328 0.191 0.328 0.328 c 0 0.141 0.656 0.074 0.586 0.301 c -0.066 0.23 -0.133 0.18 -0.344 0.43 c -0.113 0.141 -0.219 0.223 -0.285 0.289 c 0.094 0.066 0.117 0.105 0.23 0.07 c 0.145 -0.051 -0.043 -0.121 0.07 -0.188 c 0.027 -0.016 0.039 -0.027 0.059 -0.043 c 0.016 -0.012 0.035 -0.031 0.07 -0.043 c 0.07 -0.02 0.211 -0.027 0.531 -0.027 c 0.637 0 0.945 0.027 0.945 0.027 c 0 0 0.211 0 0.012 0.117 c -0.141 0.082 -0.434 0.23 -0.473 0.27 c 0.016 0 0.051 -0.004 0.086 -0.012 c 0.297 -0.082 0.703 -0.156 0.816 -0.188 c 0.051 -0.016 0.309 -0.148 0.516 -0.242 c 0.012 -0.02 0.008 -0.039 0.016 -0.059 l -0.016 0 c -0.16 -0.07 -0.289 -0.379 -0.242 -0.473 c 0.047 -0.094 0.156 -0.168 0.273 -0.402 c 0.113 -0.23 0.094 -0.07 -0.23 -0.484 c -0.324 -0.418 -0.496 0.023 -0.66 -0.117 c -0.16 -0.137 -0.488 -0.258 -0.629 -0.516 c -0.141 -0.254 -0.07 -0.066 -0.07 -0.344 c 0 -0.277 -0.027 -0.066 0.043 -0.301 c 0.066 -0.23 0.254 -0.254 0.484 -0.414 c 0.031 -0.023 0.07 -0.027 0.102 -0.043 c -0.051 -0.051 -0.129 -0.156 -0.273 -0.301 c 0 0 0.145 -0.297 0.258 -0.344 c 0.113 -0.043 0.18 -0.027 0.332 0.016 c 0.004 -0.027 0.008 -0.031 0.012 -0.086 c 0.023 -0.188 -0.07 -0.086 -0.07 -0.203 c 0 -0.113 0.055 0.004 0.215 -0.043 c 0.16 -0.047 0.168 -0.359 0.328 -0.313 c 0.164 0.047 0.164 -0.066 0.301 -0.273 c 0.141 -0.207 0 -0.094 -0.184 -0.188 c -0.188 -0.09 -0.027 0.141 -0.074 0.301 c -0.047 0.164 -0.18 0.063 -0.344 -0.285 c -0.16 -0.348 -0.02 -0.211 0.074 -0.488 c 0.016 -0.047 0.031 -0.07 0.055 -0.098 c -0.301 -0.133 -0.633 -0.215 -0.973 -0.246 m 0.617 1.234 c 0.07 0.008 0.121 0.086 0.156 0.156 c 0.02 0.039 0.008 0.047 -0.016 0.059 c 0 0 0.031 0.074 0.031 0.098 c 0 0.023 -0.051 0.016 -0.16 -0.012 c -0.082 -0.023 -0.027 -0.031 0.031 -0.074 l -0.102 0 c -0.039 0 -0.063 -0.004 -0.07 -0.012 c 0.004 0.004 0.004 0 0.012 0.012 c 0.016 0.016 0.016 0.023 0.016 0.031 c -0.016 -0.004 -0.063 -0.012 -0.102 0 c -0.074 0.016 0.008 -0.039 0.043 -0.102 c 0 0 0.02 0.016 0.031 0.027 c 0.012 -0.031 0.043 -0.09 0.043 -0.172 c 0.027 -0.012 0.063 -0.02 0.086 -0.012 m 1.746 0.199 c -0.117 0.086 -0.266 0.277 -0.387 0.402 c -0.207 0.207 0.113 0.234 0.23 0.258 c 0.113 0.023 0.227 -0.059 0.457 -0.059 c -0.004 -0.012 -0.012 -0.02 -0.016 -0.027 c -0.031 0.004 -0.063 0.012 -0.098 0.012 c -0.137 0 -0.047 -0.129 -0.016 -0.313 c -0.047 -0.098 -0.113 -0.184 -0.172 -0.273 m -1.434 0.43 c -0.047 -0.016 -0.125 0.035 -0.215 0.086 c 0.063 0.09 -0.125 0.348 -0.227 0.531 c -0.004 0.004 -0.012 0.004 -0.016 0.012 c 0.199 -0.031 0.512 0.016 1.203 0.188 c 0 0 0.254 -0.063 0.301 0.027 c 0.016 0.035 0.109 0.051 0.215 0.059 c 0.281 -0.109 0.129 -0.207 0.129 -0.43 c 0 -0.23 -0.348 0.031 -0.301 -0.086 c 0.047 -0.117 -0.055 -0.109 -0.215 -0.273 c -0.16 -0.16 -0.129 0.402 -0.242 0.289 c -0.117 -0.117 -0.125 -0.023 -0.172 -0.117 c -0.047 -0.09 -0.203 -0.242 -0.203 -0.242 c 0 0 0.109 0.125 0.086 0.359 c -0.023 0.23 -0.344 0.027 -0.344 0.027 c 0 0 0.051 -0.02 0.145 -0.043 c 0.094 -0.023 -0.016 -0.168 -0.086 -0.328 c -0.016 -0.039 -0.035 -0.051 -0.059 -0.059 m 1.949 1.145 c -0.027 0.02 -0.07 0.047 -0.102 0.059 c -0.254 0.094 -0.43 0.285 -0.43 0.285 c 0 0 0.293 0.004 0.504 0.188 c 0.016 -0.125 0.027 -0.258 0.027 -0.387 c 0 -0.047 0.004 -0.098 0 -0.145 Z" style="fill:#000"/>
 </g>
</svg>
